X:414
T: ACH ACH ICH ARMES KLOSTERFRAEULEIN
N: B0487
O: Europa, Mitteleuropa, Deutschland
R: Liebes - Lied, Leid, Klage
M: 4/4
L: 1/8
K: G
B2 | d3cBAGA | B2e2d2z
d | dgfed2^cc | d4z2
d2 | d2cBd2cB | e4d2
c2 | B2BBA2dc | B4z2
B2 | d2cBd2cB | g4f2
e2 | d2cBAedc | B4z2

